svgs/light/ribbon.svg

<svg xmlns="http://www.w3.org/2000/svg" viewBox="0 0 448 512"><!--! Font Awesome Pro 6.0.0-alpha3 by @fontawesome - https://fontawesome.com License - https://fontawesome.com/license (Commercial License) --><path d="M203.4 404.7c6.219 6.281 6.156 16.41-.0938 22.66l-73.22 72.63C122.9 507.8 112.7 512 102.3 512c-6.906 0-13.91-1.844-20.06-5.656l-62.5-25.56c-1.031-.4375-2.062-.9687-2.969-1.625c-9.094-6.219-15.06-16.03-16.44-26.97c-1.375-10.94 1.1-21.97 9.281-30.28l90.72-96.88c6.031-6.469 16.16-6.75 22.62-.75c6.437 6.063 6.781 16.19 .75 22.63l-90.37 96.5c-1.375 1.563-1.406 3.688-1.25 4.813c.0938 .9063 .5 2.469 1.844 3.781l61.81 25.28c1.062 .4375 2.094 1 3.062 1.656c2.406 1.719 6.062 1.188 8.156-1.094l73.78-73.25C187 398.4 197.1 398.5 203.4 404.7zM438.2 421.8c-90.16-101.1-219.6-246.7-260.2-292.8c13.62-4.563 28.1-6.844 45.87-6.844c24.97 0 46.56 5 64.16 14.84c7.625 4.25 17.44 1.563 21.78-6.156c4.312-7.719 1.562-17.47-6.156-21.78C281.3 96.59 254.4 90.21 223.9 90.21c-30.44 0-57.28 6.375-79.75 18.91c-3.812 2.125-6.594 5.688-7.687 9.906C135.4 123.2 136.1 127.7 138.3 131.4c.9687 1.594 3.906 6.375 275.1 311.7c1.75 1.969 1.781 4.094 1.656 5.188c-.125 .8438-.5 2.344-1.719 3.594l-61.94 25.31c-1.062 .4375-2.062 .9687-2.1 1.625c-2.438 1.75-5.937 1.344-8.031-1L110.9 219.8C73.71 178.2 100.8 131.9 102 129.8l40.53-68.72c2.812-4.781 6.344-8.656 10.78-11.72c33.69-23.06 107.7-22.97 141.1-.0938c4.562 3.156 8.094 7 10.91 11.88l40.62 68.91c16.91 28.69 13.34 64.66-8.812 89.47c-5.875 6.594-5.312 16.69 1.281 22.59c6.594 5.844 16.72 5.313 22.59-1.281c31.47-35.22 36.5-86.28 12.5-127l-40.56-68.78c-5.062-8.781-11.87-16.19-20.34-22.06c-44.69-30.63-132.5-30.63-177.5 .0625C126.8 28.81 120 36.21 114.1 44.9L74.52 113.5c-15.16 25.25-29.59 80.59 12.47 127.6l230.4 258c7.5 8.375 17.97 12.72 28.53 12.72c6.844 0 13.75-1.844 19.87-5.594l62.59-25.59c1.031-.4375 2-.9687 2.938-1.594c9.062-6.156 15.03-15.94 16.37-26.84C449.1 441.2 445.6 430.1 438.2 421.8z"/></svg>

<svg xmlns="http://www.w3.org/2000/svg" viewBox="0 0 448 512"><!-- Font Awesome Pro 6.0.0-alpha2 by @fontawesome - https://fontawesome.com License - https://fontawesome.com/license (Commercial License) --><path d="M203.362 404.686C209.581 410.967 209.519 421.092 203.269 427.342L130.05 499.969C122.894 507.844 112.675 512 102.269 512C95.363 512 88.363 510.156 82.207 506.344L19.707 480.781C18.676 480.343 17.645 479.812 16.739 479.156C7.645 472.937 1.676 463.124 0.301 452.187C-1.074 441.249 2.301 430.218 9.582 421.905L100.301 325.028C106.332 318.56 116.457 318.278 122.925 324.278C129.363 330.341 129.707 340.466 123.675 346.904L33.301 443.405C31.926 444.968 31.895 447.093 32.051 448.218C32.145 449.124 32.551 450.687 33.895 451.999L95.707 477.281C96.769 477.718 97.801 478.281 98.769 478.937C101.176 480.656 104.832 480.125 106.925 477.843L180.706 404.592C187.019 398.373 197.112 398.467 203.362 404.686ZM438.205 421.811C348.049 320.685 218.612 175.151 178.05 129.057C191.675 124.494 207.05 122.213 223.925 122.213C248.893 122.213 270.487 127.213 288.081 137.057C295.706 141.307 305.518 138.619 309.862 130.9C314.174 123.182 311.424 113.431 303.706 109.119C281.268 96.587 254.425 90.212 223.925 90.212C193.487 90.212 166.644 96.587 144.175 109.119C140.363 111.244 137.582 114.806 136.488 119.025C135.363 123.244 136.05 127.713 138.3 131.432C139.269 133.025 142.207 137.807 414.299 443.093C416.049 445.061 416.08 447.187 415.955 448.28C415.83 449.124 415.455 450.624 414.236 451.874L352.299 477.187C351.236 477.624 350.236 478.156 349.299 478.812C346.861 480.562 343.362 480.156 341.268 477.812L110.863 219.777C73.707 178.214 100.801 131.869 102.019 129.807L142.55 61.087C145.363 56.306 148.894 52.43 153.331 49.368C187.019 26.305 260.987 26.399 294.424 49.274C298.987 52.43 302.518 56.274 305.331 61.149L345.955 130.057C362.861 158.745 359.299 194.714 337.143 219.527C331.268 226.121 331.83 236.215 338.424 242.121C345.018 247.965 355.143 247.433 361.018 240.84C392.486 205.62 397.517 154.557 373.518 113.806L332.955 45.024C327.893 36.243 321.08 28.836 312.612 22.961C267.924 -7.664 180.144 -7.664 135.144 23.024C126.832 28.805 120.019 36.211 114.957 44.899L74.519 113.463C59.363 138.713 44.926 194.058 86.988 241.09L317.393 499.125C324.893 507.5 335.362 511.844 345.924 511.844C352.768 511.844 359.674 510 365.799 506.25L428.392 480.656C429.423 480.218 430.392 479.687 431.33 479.062C440.392 472.906 446.361 463.124 447.705 452.218C449.08 441.218 445.611 430.124 438.205 421.811Z"/></svg>
